icons/breezeLight/toolpath/prof_in_climb.svg

<svg height="75" viewBox="0 0 19.84375 19.843751" width="75" xmlns="http://www.w3.org/2000/svg"><g transform="translate(0 -277.15623)"><g fill="#4d4d4d"><path d="m15 15v45h45v-45zm1 1h43v43h-43z" stroke-width=".989072" transform="matrix(.26458334 0 0 .26458334 0 277.15623)"/><path d="m51.462891 30a7.4999998 7.4999998 0 0 0 -7.462891 7.5 7.4999998 7.4999998 0 0 0 7.5 7.5 7.4999998 7.4999998 0 0 0 7.5-7.5 7.4999998 7.4999998 0 0 0 -7.5-7.5 7.4999998 7.4999998 0 0 0 -.037109 0zm.037109 1a6.5 6.5 0 0 1 6.5 6.5 6.5 6.5 0 0 1 -6.5 6.5 6.5 6.5 0 0 1 -6.5-6.5 6.5 6.5 0 0 1 6.5-6.5z" stroke-width=".999999" transform="matrix(.26458334 0 0 .26458334 0 277.15623)"/><path d="m37.5 16a7.4999998 7.4999998 0 0 0 -7.5 7.5 7.4999998 7.4999998 0 0 0 7.5 7.5 7.4999998 7.4999998 0 0 0 7.5-7.5 7.4999998 7.4999998 0 0 0 -7.5-7.5zm0 1a6.5 6.5 0 0 1 6.5 6.5 6.5 6.5 0 0 1 -6.5 6.5 6.5 6.5 0 0 1 -6.5-6.5 6.5 6.5 0 0 1 6.5-6.5z" stroke-width=".999999" transform="matrix(.26458334 0 0 .26458334 0 277.15623)"/><circle cx="13.626042" cy="287.07809" fill-opacity=".501961" fill-rule="evenodd" r="1.719792"/></g><circle cx="9.921876" cy="283.37393" fill="#3daee9" fill-rule="evenodd" r="1.719792"/><path d="m47 19-8.488281 3.394531a1.5000001 1.5000001 0 0 0 -1.011719-.394531 1.5000001 1.5000001 0 0 0 -1.5 1.5 1.5000001 1.5000001 0 0 0 1.5 1.5 1.5000001 1.5000001 0 0 0 1.011719-.394531l8.488281 3.394531v-1l-7.5-3h11.5v12.087891a1.5000001 1.5000001 0 0 0 -1 1.412109 1.5000001 1.5000001 0 0 0 1.5 1.5 1.5000001 1.5000001 0 0 0 1.5-1.5 1.5000001 1.5000001 0 0 0 -1-1.412109v-13.087891h-12.5l7.5-3z" fill="#da4453" stroke-width=".807575" transform="matrix(.26458334 0 0 .26458334 0 277.15623)"/></g></svg>

<?xml version="1.0" encoding="UTF-8" standalone="no"?>
<svg
   xmlns:dc="http://purl.org/dc/elements/1.1/"
   xmlns:cc="http://creativecommons.org/ns#"
   xmlns:rdf="http://www.w3.org/1999/02/22-rdf-syntax-ns#"
   xmlns:svg="http://www.w3.org/2000/svg"
   xmlns="http://www.w3.org/2000/svg"
   xmlns:sodipodi="http://sodipodi.sourceforge.net/DTD/sodipodi-0.dtd"
   xmlns:inkscape="http://www.inkscape.org/namespaces/inkscape"
   sodipodi:docname="prof_in_climb.svg"
   inkscape:version="1.0.2 (e86c870879, 2021-01-15, custom)"
   id="svg8"
   version="1.1"
   viewBox="0 0 19.84375 19.843751"
   height="75"
   width="75">
  <defs
     id="defs2" />
  <sodipodi:namedview
     inkscape:document-rotation="0"
     inkscape:window-maximized="0"
     inkscape:window-y="483"
     inkscape:window-x="720"
     inkscape:window-height="1042"
     inkscape:window-width="1102"
     showguides="false"
     units="px"
     showgrid="true"
     inkscape:current-layer="layer1"
     inkscape:document-units="px"
     inkscape:cy="23.14541"
     inkscape:cx="45.302296"
     inkscape:zoom="22.627417"
     inkscape:pageshadow="2"
     inkscape:pageopacity="0.0"
     borderopacity="1.0"
     bordercolor="#666666"
     pagecolor="#ffffff"
     id="base">
    <inkscape:grid
       id="grid10"
       type="xygrid" />
  </sodipodi:namedview>
  <metadata
     id="metadata5">
    <rdf:RDF>
      <cc:Work
         rdf:about="">
        <dc:format>image/svg+xml</dc:format>
        <dc:type
           rdf:resource="http://purl.org/dc/dcmitype/StillImage" />
        <dc:title />
      </cc:Work>
    </rdf:RDF>
  </metadata>
  <g
     transform="translate(0,-277.15623)"
     id="layer1"
     inkscape:groupmode="layer"
     inkscape:label="Layer 1">
    <path
       transform="matrix(0.26458334,0,0,0.26458334,0,277.15623)"
       d="M 15 15 L 15 60 L 60 60 L 60 15 L 15 15 z M 16 16 L 59 16 L 59 59 L 16 59 L 16 16 z "
       style="stroke-width:0.989072;fill:#4d4d4d;fill-opacity:1"
       id="rect14" />
    <path
       transform="matrix(0.26458334,0,0,0.26458334,0,277.15623)"
       d="M 51.462891 30 A 7.4999998 7.4999998 0 0 0 44 37.5 A 7.4999998 7.4999998 0 0 0 51.5 45 A 7.4999998 7.4999998 0 0 0 59 37.5 A 7.4999998 7.4999998 0 0 0 51.5 30 A 7.4999998 7.4999998 0 0 0 51.462891 30 z M 51.5 31 A 6.5 6.5 0 0 1 58 37.5 A 6.5 6.5 0 0 1 51.5 44 A 6.5 6.5 0 0 1 45 37.5 A 6.5 6.5 0 0 1 51.5 31 z "
       style="fill:#4d4d4d;stroke-width:0.999999;fill-opacity:1"
       id="path18" />
    <path
       transform="matrix(0.26458334,0,0,0.26458334,0,277.15623)"
       d="M 37.5 16 A 7.4999998 7.4999998 0 0 0 30 23.5 A 7.4999998 7.4999998 0 0 0 37.5 31 A 7.4999998 7.4999998 0 0 0 45 23.5 A 7.4999998 7.4999998 0 0 0 37.5 16 z M 37.5 17 A 6.5 6.5 0 0 1 44 23.5 A 6.5 6.5 0 0 1 37.5 30 A 6.5 6.5 0 0 1 31 23.5 A 6.5 6.5 0 0 1 37.5 17 z "
       style="fill:#4d4d4d;stroke-width:0.999999;fill-opacity:1"
       id="path22" />
    <circle
       r="1.7197917"
       cy="287.07809"
       cx="13.626042"
       id="path841"
       style="fill:#4d4d4d;fill-opacity:0.501961;fill-rule:evenodd;stroke:none;stroke-width:0.1" />
    <circle
       style="fill:#3daee9;fill-opacity:1;fill-rule:evenodd;stroke:none;stroke-width:0.1"
       id="path841-9"
       cx="9.921876"
       cy="283.37393"
       r="1.7197917" />
    <path
       id="rect26"
       transform="matrix(0.26458334,0,0,0.26458334,0,277.15623)"
       d="M 47 19 L 38.511719 22.394531 A 1.5000001 1.5000001 0 0 0 37.5 22 A 1.5000001 1.5000001 0 0 0 36 23.5 A 1.5000001 1.5000001 0 0 0 37.5 25 A 1.5000001 1.5000001 0 0 0 38.511719 24.605469 L 47 28 L 47 27 L 39.5 24 L 51 24 L 51 36.087891 A 1.5000001 1.5000001 0 0 0 50 37.5 A 1.5000001 1.5000001 0 0 0 51.5 39 A 1.5000001 1.5000001 0 0 0 53 37.5 A 1.5000001 1.5000001 0 0 0 52 36.087891 L 52 23 L 39.5 23 L 47 20 L 47 19 z "
       style="fill:#da4453;stroke-width:0.80757487;fill-opacity:1" />
  </g>
</svg>
